overlay/pineapple/modules/Tracking/module_icon.svg

<svg xmlns="http://www.w3.org/2000/svg" viewBox="0 0 256 256"  xmlns:v="https://vecta.io/nano"><path d="M127.1 138.2l-13.4-9.1c-2.3-2.1-4.4-6.3-3.7-8.9 7.8-30.7 47-91.5 65.8-71.6 10.3 10.9 6.3 32-6.3 48.9-12.7 16.9-34.8 40.9-34.8 40.9-1.9 2.1-5.3 2-7.6-.2zm-51.3-18.6l16.7 4.3c3.1.8 6.6-1 7.8-4l1.8-4.4c1.2-3 .4-7.3-1.9-9.4-14.3-13.7-19.5-20.9-21.8-13.6-5.7 17.8-9.8 25.2-2.6 27.1zm31.4-30.8c3.1.8 7.2-.5 9.1-3 4.6-5.7-.6-9.9-15.5-29.6-4.5-5.9-7.1 2.9-15.8 20.7-3.3 7 5 7.4 22.2 11.9zm11.7-28.6c5.9 4.8 11.8-3 8-9.4l-9.2-15.6c-3.6-6-8 1.3-12.2 6.6-4.7 5.8 2.3 9.4 13.4 18.4zM144 39.9l1.1-27.7c.3-7.5-7.2-.4-13.3 3.9-6.1 4.4-2.3 10.7 3.2 27.1 2.4 7.3 8.7 4.3 9-3.3zm17.1-3.4c2.7-.1 5.7-2.7 6.5-5.8 6-22.1 9.7-30.1 2.3-28.5-9.3 2-17.2 2.3-16.5 9.5 1.9 16.9 1.2 24.9 7.7 24.8zM142.4 147c-7.1-3-18.7 7.3-13.6 13.9l10.5 13.6c4.5 5.8 9.5-.5 24.1-12.9 5.9-5-2.8-6.9-21-14.6zm46.2-18.9c-22.8-4.9-28.8-7.8-32.3-1.4-1.5 2.7-1.1 7 .8 9.5 9.6 12.3 13.3 19.9 18.4 14.2 13.6-15.2 20.4-20.7 13.1-22.3zM46.8 194c8 1.9 11.6 3.6 13.2-.2.6-1.4 2.7-5.1.1-7.6-7.6-7.5-10.2-11.2-11.5-7.1-3.3 9.8-5.7 14-1.8 14.9zm18.1-16.7c4.1 1 8-3.6 5.5-7.1l-8.6-11.7c-2.5-3.5-4.3 2.2-9.4 12.3-2 4 2.7 4.1 12.5 6.5zm40.8 44.4l-10-4c-1.4-.6-3.6-.1-4.8 1.1l-1.7 1.7c-2.7 2.7.1 5.1 4.6 11.1.9 1.2 2.7 1.3 4 .3l8.2-7.1c1.3-1.1 1.2-2.5-.3-3.1zM122 202l-13.8-2.6c-1.8-.3-4 .7-4.9 2.3s-.8 4.1.3 5.6l6.1 8.1c1.1 1.4 3 1.4 4.3-.1l8.8-10c1.4-1.4 1-2.9-.8-3.3zm81.9-99.4l-21.7-2.4c-7.5-.8-12.4 7.7-5.5 10.8 17 7.6 22.3 11.7 25.9 5.2 3.1-5.9 8.2-12.8 1.3-13.6zm13.5-31.8c-20.5 6.4-27.7 7.6-27.8 12.4 0 2.1 2.5 4.1 5.6 4.5 15.2 2 22 4.5 23.8-2.7 1.8-7.1 5.4-16.4-1.6-14.2zm-27.8-11.3c3.1 5.5 10.1 1.8 26.5-3.4 7-2.2 3.1-9.6.3-18.1-2.3-7.1-7.7-.6-24.7 13.5-2.5 2-3.4 5.6-2.1 8zm-11-21.9c2.5 1.9 6.9 2.3 9.8.8l8.1-4.1c6.7-3.4 14.5-17.2 7.7-22.3l-6.6-5.1c-10.3-8-29.1 22.9-19 30.7zm-88.3 196c-3.7-3-10.6-1.7-15.6-.5-12.6 3.6-25-6.5-24.1-19.5.4-28.2-17.2-13-18 .2-1.6 24.7 21.8 43.6 45.6 36.8 10.6-3 15.8-14 12.1-17zm5.2-50.6l-7.7-4.8c-5-3.1-11.8-1.6-15.1 3.4l-10.8 19.7c-6.9 10.5 2.5 14.2 9.4 18.5 5 3.1 10.4.5 13.7-4.5l13.6-17.5c3.3-5 1.9-11.7-3.1-14.8z" fill="gray"/></svg>

<?xml version="1.0" encoding="utf-8"?>
<!-- Generator: Adobe Illustrator 21.1.0, SVG Export Plug-In . SVG Version: 6.00 Build 0)  -->
<svg version="1.1" id="Layer_1" xmlns="http://www.w3.org/2000/svg" xmlns:xlink="http://www.w3.org/1999/xlink" x="0px" y="0px"
	 viewBox="0 0 256 256" style="enable-background:new 0 0 256 256;" xml:space="preserve">
<style type="text/css">
	.st0{fill:#808080;}
</style>
<g>
	<path id="_x30_" class="st0" d="M127.1,138.2l-13.4-9.1c-2.3-2.1-4.4-6.3-3.7-8.9c7.8-30.7,47-91.5,65.8-71.6
		c10.3,10.9,6.3,32-6.3,48.9c-12.7,16.9-34.8,40.9-34.8,40.9C132.8,140.5,129.4,140.4,127.1,138.2z M75.8,119.6l16.7,4.3
		c3.1,0.8,6.6-1,7.8-4l1.8-4.4c1.2-3,0.4-7.3-1.9-9.4C85.9,92.4,80.7,85.2,78.4,92.5C72.7,110.3,68.6,117.7,75.8,119.6z M107.2,88.8
		c3.1,0.8,7.2-0.5,9.1-3c4.6-5.7-0.6-9.9-15.5-29.6c-4.5-5.9-7.1,2.9-15.8,20.7C81.7,83.9,90,84.3,107.2,88.8z M118.9,60.2
		c5.9,4.8,11.8-3,8-9.4l-9.2-15.6c-3.6-6-8,1.3-12.2,6.6C100.8,47.6,107.8,51.2,118.9,60.2z M144,39.9l1.1-27.7
		c0.3-7.5-7.2-0.4-13.3,3.9c-6.1,4.4-2.3,10.7,3.2,27.1C137.4,50.5,143.7,47.5,144,39.9z M161.1,36.5c2.7-0.1,5.7-2.7,6.5-5.8
		c6-22.1,9.7-30.1,2.3-28.5c-9.3,2-17.2,2.3-16.5,9.5C155.3,28.6,154.6,36.6,161.1,36.5z M142.4,147c-7.1-3-18.7,7.3-13.6,13.9
		l10.5,13.6c4.5,5.8,9.5-0.5,24.1-12.9C169.3,156.6,160.6,154.7,142.4,147z M188.6,128.1c-22.8-4.9-28.8-7.8-32.3-1.4
		c-1.5,2.7-1.1,7,0.8,9.5c9.6,12.3,13.3,19.9,18.4,14.2C189.1,135.2,195.9,129.7,188.6,128.1z M46.8,194c8,1.9,11.6,3.6,13.2-0.2
		c0.6-1.4,2.7-5.1,0.1-7.6c-7.6-7.5-10.2-11.2-11.5-7.1C45.3,188.9,42.9,193.1,46.8,194z M64.9,177.3c4.1,1,8-3.6,5.5-7.1l-8.6-11.7
		c-2.5-3.5-4.3,2.2-9.4,12.3C50.4,174.8,55.1,174.9,64.9,177.3z M105.7,221.7l-10-4c-1.4-0.6-3.6-0.1-4.8,1.1l-1.7,1.7
		c-2.7,2.7,0.1,5.1,4.6,11.1c0.9,1.2,2.7,1.3,4,0.3l8.2-7.1C107.3,223.7,107.2,222.3,105.7,221.7z M122,202l-13.8-2.6
		c-1.8-0.3-4,0.7-4.9,2.3c-0.9,1.6-0.8,4.1,0.3,5.6l6.1,8.1c1.1,1.4,3,1.4,4.3-0.1l8.8-10C124.2,203.9,123.8,202.4,122,202z
		 M203.9,102.6l-21.7-2.4c-7.5-0.8-12.4,7.7-5.5,10.8c17,7.6,22.3,11.7,25.9,5.2C205.7,110.3,210.8,103.4,203.9,102.6z M217.4,70.8
		c-20.5,6.4-27.7,7.6-27.8,12.4c0,2.1,2.5,4.1,5.6,4.5c15.2,2,22,4.5,23.8-2.7C220.8,77.9,224.4,68.6,217.4,70.8z M189.6,59.5
		c3.1,5.5,10.1,1.8,26.5-3.4c7-2.2,3.1-9.6,0.3-18.1c-2.3-7.1-7.7-0.6-24.7,13.5C189.2,53.5,188.3,57.1,189.6,59.5z M178.6,37.6
		c2.5,1.9,6.9,2.3,9.8,0.8l8.1-4.1c6.7-3.4,14.5-17.2,7.7-22.3l-6.6-5.1C187.3-1.1,168.5,29.8,178.6,37.6z M90.3,233.6
		c-3.7-3-10.6-1.7-15.6-0.5c-12.6,3.6-25-6.5-24.1-19.5c0.4-28.2-17.2-13-18,0.2c-1.6,24.7,21.8,43.6,45.6,36.8
		C88.8,247.6,94,236.6,90.3,233.6z M95.5,183l-7.7-4.8c-5-3.1-11.8-1.6-15.1,3.4l-10.8,19.7c-6.9,10.5,2.5,14.2,9.4,18.5
		c5,3.1,10.4,0.5,13.7-4.5l13.6-17.5C101.9,192.8,100.5,186.1,95.5,183z"/>
</g>
</svg>
